X:12213
T:O.P.,The. JC.093
M:6/8
L:1/8
Q:120
S:John Clare,Poet,Helpston. (1793-1864)
R:Jig
O:England
A:Northamptonshire
N:
Z:P Headford
K:Bb
B3F3|B3F3|Bdf fed|cdB ABc|B3F3|B3F3|Bdf ecA|B2dB3:|!
f2f fdB|g2g gab|fgf fed|cdc cde|f2f fed|g2g gab|
agf cd^e|fg_e de"DC"c||
W:MS includes Dance Instructions.
